X: 1 
T: The Starry Nights of Shetland - harmony
M: 3/4
L: 1/4
Q: 1/4=176
R: waltz
K: D
F|D2F|FGF|E2E|GAG|CDE|A,B,C|DCD|A,B,C|
D2F|FGF|E2E|GAG|CEG|ADE|F3|F2:|
D|D2G|BGB,/C/|D2F|AFD|D2C|B,2A,|G,B,G,|A,B,C|
D3|=C3|B,3|^G,3|A,GF|EDA|F3|F2:|
